src/resources/assets/email.svg

<svg xmlns="http://www.w3.org/2000/svg" width="16" height="16"><path d="M 2 6.039062 L 2 11 C 2 12.105469 2.894531 13 4 13 L 12 13 C 13.105469 13 14 12.105469 14 11 L 14 5 C 14 3.894531 13.105469 3 12 3 L 4 3 C 2.894531 3 2 3.894531 2 5 Z M 4 4 L 12 4 C 12.550781 4 13 4.449219 13 5 L 13 5.738281 L 8 8.433594 L 3 5.738281 L 3 5 C 3 4.449219 3.449219 4 4 4 Z M 3 6.875 L 7.761719 9.441406 C 7.910156 9.519531 8.089844 9.519531 8.238281 9.441406 L 13 6.875 L 13 11 C 13 11.550781 12.550781 12 12 12 L 4 12 C 3.449219 12 3 11.550781 3 11 Z M 3 6.875" fill="#ddd"/></svg>

<svg xmlns="http://www.w3.org/2000/svg" width="16" height="16"><path d="M2 6.04V11c0 1.105.895 2 2 2h8c1.105 0 2-.895 2-2V5c0-1.105-.895-2-2-2H4c-1.105 0-2 .895-2 2zM4 4h8c.55 0 1 .45 1 1v.738L8 8.434 3 5.738V5c0-.55.45-1 1-1zM3 6.875l4.762 2.566a.514.514 0 00.476 0L13 6.875V11c0 .55-.45 1-1 1H4c-.55 0-1-.45-1-1zm0 0" fill="#ddd"/></svg>
